!!!!SEGMENT: pl-kk--kk-i-84--001_bellinzani-paolo-benedetto--missa-in-dmol-kyrie.krn
!!!cenid: 17xx:2308
!!!COM: Bellinzani, Paolo Benedetto
!!!COM-rismID: pe30000281
!!!CDT: 1682-1757/02/26
!!!CNT: Italian
!!!OPR: Missa in Dmol
!!!OTL: Kyrie
!!!OMV: 001
!!!PDT:
!!!AGN: Sacred; Mass
!!!SMS-siglum: PL-Kk
!!!SMS-shelfmark: Kk.I.84
!!!SMS-shelfwork: 001-001 M
!!!SMS-variant:
!!!SMS-altvar:
!!!NIFC-rismSourceID: 1001154030
!!!NIFC-islandoraID: pl-kk:2905
!!!URL-pdf-islandora: https://repozytorium.nifc.pl/islandora/object/pl-kk%3A2905/datastream/PDF/view
!!!URL-scan: https://polish.musicsources.pl/pl/lokalizacje/galeria/rekopisy/6144 @EN{Scan on Polish Music Herritage in Open Access Website} @PL{Skany w portalu Dziedzictwo Muzyki Polskiej w otwartym dostępie}
!!!ONB-nifc: UWAGA: części Mszy: 1. Kyrie, 2. Et in terra, 3. Sanctus, 4. Agnus Dei.
!!!AIN: 1 alto 2 empty 1 tenor 1 vox
!!!key:
**kern	**fba	**text	**kern	**text	**kern	**text	**kern	**text	**dynam	**kern	**text
*part5	*part5	*part5	*part4	*part4	*part3	*part3	*part2	*part2	*part2	*part1	*part1
*staff5	*staff5	*staff5	*staff4	*staff4	*staff3	*staff3	*staff2	*staff2	*	*staff1	*staff1
*Iempty	*	*	*Iempty	*	*Itenor	*	*Ialto	*	*	*Ivox	*
*I"Baſso Ripieno	*	*	*I"Baſso.	*	*I"Tenore	*	*I"Alto.	*	*	*I"Canto.	*
*I'B rip	*	*	*I'B	*	*I'T	*	*I'A	*	*	*I'C	*
*clefC3	*	*	*clefF4	*	*clefC4	*	*clefC3	*	*	*clefC1	*
*k[]	*	*	*k[]	*	*k[]	*	*k[]	*	*	*k[]	*
*d:	*	*	*d:	*	*d:	*	*d:	*	*	*d:	*
*M2/1	*	*	*M2/1	*	*M2/1	*	*M2/1	*	*	*M2/1	*
*met(C|)	*	*	*met(C|)	*	*met(C|)	*	*met(C|)	*	*	*met(C|)	*
=1-	=1-	=1-	=1-	=1-	=1-	=1-	=1-	=1-	=1-	=1-	=1-
*2\right	*	*	*	*	*	*	*2\right	*	*	*	*
!	!	!	!LO:TX:a:t=a Capella	!	!LO:TX:a:t=à Càpella	!	!	!	!LO:DY:a:t=Forte	!	!
!LO:TX:a:t=P:problem=♮ above	!	!	!	!	!LO:TX:t=P:problem=kreska pseudotaktowa	!	!	!	!	!	!
2.dn\	.	Ky-	00r	.	00r	.	2.d\	Ky-	f	00r	.
!LO:TX:t=P:problem=kreska pseudotaktowa	!	!	!	!	!	!	!	!	!	!	!
4d\	.	-ri-	.	.	.	.	4d\	-ri-	.	.	.
2e\	.	-e	.	.	.	.	2e\	-e	.	.	.
!LO:TX:t=P:problem=kreska pseudotaktowa	!	!	!	!	!	!	!LO:TX:t=P:problem=kreska pseudotaktowa	!	!	!	!
2f\	.	.	.	.	.	.	2f\	e-	.	.	.
=2-	=2-	=2-	=2-	=2-	=2-	=2-	=2-	=2-	=2-	=2-	=2-
2g\	.	.	.	.	.	.	2g\	-le-	.	.	.
2a\	.	.	.	.	.	.	2a\	-i-	.	.	.
1d	.	.	.	.	.	.	2d,<\	-son	.	.	.
!	!	!	!	!	!	!	!LO:TX:t=P:problem=kreska pseudotaktowa	!	!	!	!
.	.	.	.	.	.	.	2d\	e-	.	.	.
*clefC4	*	*	*	*	*	*	*	*	*	*	*
=3-	=3-	=3-	=3-	=3-	=3-	=3-	=3-	=3-	=3-	=3-	=3-
*	*	*	*	*	*2\right	*	*	*	*	*	*
!	!	!	!	!	!	!	!	!	!	!LO:TX:t=P:problem=kreska pseudotaktowa	!
2.A\	.	.	00r	.	2.A\	Ky-	(2e\	-lei-	.	0r	.
.	.	.	.	.	.	.	2a\)	.	.	.	.
4A\	.	.	.	.	4A\	-ri-	.	.	.	.	.
2Bn\	.	.	.	.	2Bn\	-e	4g#X,<\	-son	.	.	.
.	.	.	.	.	.	.	4g#\	e-	.	.	.
!LO:TX:t=P:problem=kreska pseudotaktowa	!	!	!	!	!LO:TX:t=P:problem=kreska pseudotaktowa	!	!LO:TX:t=P:problem=kreska pseudotaktowa	!	!	!	!
2c/	.	.	.	.	2c\	e-	[<2a\	-lei-	.	.	.
=4-	=4-	=4-	=4-	=4-	=4-	=4-	=4-	=4-	=4-	=4-	=4-
*	*	*	*	*	*	*	*	*	*	*2\right	*
2d\	.	.	.	.	2d\	-le-	2a\]	.	.	2.b\	Ky-
2e\	.	.	.	.	2e\	-i-	2g#X\	.	.	.	.
.	.	.	.	.	.	.	.	.	.	4b\	-ri-
2A\	.	.	.	.	2A,</	-son	2a,<\	-son	.	2ccn\	-e
!LO:TX:t=P:problem=kreska pseudotaktowa	!	!	!	!	!LO:TX:t=P:problem=kreska pseudotaktowa	!	!	!	!	!LO:TX:t=P:problem=kreska pseudotaktowa	!
2A\	.	.	.	.	2A/	e-	1a\	Ky-	.	2cc#X\	e-
=5-	=5-	=5-	=5-	=5-	=5-	=5-	=5-	=5-	=5-	=5-	=5-
!	!	!	!LO:TX:t=P:problem=kreska pseudotaktowa	!	!	!	!	!	!	!	!
2B\	.	.	1r	.	2B\	-lei-	.	-ri-	.	(2dd\	-lei-
!LO:TX:t=P:problem=kreska pseudotaktowa	!	!	!	!	!	!	!LO:TX:t=P:problem=kreska pseudotaktowa	!	!	!	!
2c#X\	.	.	.	.	2c#X\	.	2gny\	.	.	2ee\)	.
*clefF4	*	*	*	*	*	*	*	*	*	*	*
!	!	!	!	!	!	!	!	!	!	!LO:TX:t=P:problem=kreska pseudotaktowa	!
2.D\	.	Ky-	2.D/	Ky-	2d,<\	-son	(2f\	-e	.	1a,<	-son
.	.	.	.	.	4d\	Ky-	2a\)	.	.	.	.
!LO:TX:t=P:problem=kreska pseudotaktowa	!	!	!	!	!LO:TX:t=P:problem=kreska pseudotaktowa	!	!	!	!	!	!
4D\	.	-ri-	4D/	-ri-	4d\	-ri-	.	.	.	.	.
=6-	=6-	=6-	=6-	=6-	=6-	=6-	=6-	=6-	=6-	=6-	=6-
*	*	*	*2\right	*	*	*	*	*	*	*	*
2E\	.	-e	2E\	-e	4c#X\	-e	2g\	e-	.	0r	.
.	.	.	.	.	4c#\	e-	.	.	.	.	.
!LO:TX:t=P:problem=kreska pseudotaktowa	!	!	!LO:TX:t=P:problem=kreska pseudotaktowa	!	!	!	!	!	!	!	!
2F\	.	e-	2F\	e-	1d	-lei-	2f\	-lei-	.	.	.
!	!	!	!	!	!	!	!LO:TX:t=P:problem=kreska pseudotaktowa	!	!	!	!
2G\	.	-lei-	2G\	-le-	.	.	1e	.	.	.	.
!	!	!	!	!	!LO:TX:t=P:problem=kreska pseudotaktowa	!	!	!	!	!	!
2A\	.	-son	2A\	-i-	2c#X\	.	.	.	.	.	.
=7-	=7-	=7-	=7-	=7-	=7-	=7-	=7-	=7-	=7-	=7-	=7-
!LO:TX:t=P:problem=kreska pseudotaktowa	!	!	!	!	!	!	!	!	!	!LO:TX:t=P:problem=kreska pseudotaktowa	!
1D	.	e-	2D,</	-son	2d,<\	-son	1f	.	.	1r	.
!	!	!	!LO:TX:t=P:problem=kreska pseudotaktowa	!	!	!	!	!	!	!	!
.	.	.	2D/	e-	2d\	e-	.	.	.	.	.
2AA/	.	-lei-	(2E\	-lei-	2cn\	-lei-	1e	-son	.	2.a\	Ky-
!	!	!	!	!	!LO:TX:t=P:problem=kreska pseudotaktowa	!	!	!	!	!	!
2A\	.	.	2A\)	.	2c\	.	.	.	.	.	.
!	!	!	!	!	!	!	!	!	!	!LO:TX:t=P:problem=kreska pseudotaktowa	!
.	.	.	.	.	.	.	.	.	.	4a\	-ri-
=8-	=8-	=8-	=8-	=8-	=8-	=8-	=8-	=8-	=8-	=8-	=8-
!	!	!	!	!	!	!	!LO:TX:t=P:problem=kreska pseudotaktowa	!	!	!	!
(>2G#X\	.	.	4G#X,<\	-son	2B\	-son	1e,<	.	.	2b\	-e
.	.	.	4G#\	e-	.	.	.	.	.	.	.
2A\)	.	.	1A	-le-	2r	.	.	.	.	2ccny\	e-
!LO:LB:g=original	!	!	!	!	!	!	!	!	!	!	!
2A,<\	.	-son	.	.	2.B\	Ky-	2r	.	.	2dd\	-le-
!LO:TX:t=P:problem=kreska pseudotaktowa	!	!	!LO:TX:t=P:problem=kreska pseudotaktowa	!	!	!	!	!	!	!LO:TX:t=P:problem=kreska pseudotaktowa	!
2G#X\	.	Ky-	2G#X\	-i-	.	.	4e\	Ky-	.	2ee\	-i-
!	!	!	!	!	!LO:TX:t=P:problem=kreska pseudotaktowa	!	!LO:TX:t=P:problem=kreska pseudotaktowa	!	!	!	!
.	.	.	.	.	4B\	-ri-	4e\	-ri-	.	.	.
=9-	=9-	=9-	=9-	=9-	=9-	=9-	=9-	=9-	=9-	=9-	=9-
!	!	!	!	!	!LO:LB:g=original	!	!LO:LB:g=original	!	!	!	!
2A\	.	-ri-	2A,<\	-son	2c\	-e	2e\	-e	.	2a,<\	-son
!	!	!	!LO:TX:t=P:problem=kreska pseudotaktowa	!	!	!	!LO:TX:t=P:problem=kreska pseudotaktowa	!	!	!	!
1A	.	-e	[<2A\	Ky-	2c#X\	e-	2e\	e-	.	2a\	e-
.	.	.	2A\]	.	2d\	-le-	2f\	-le-	.	2b\	-le-
!	!	!	!	!	!LO:TX:t=P:problem=kreska pseudotaktowa	!	!LO:TX:t=P:problem=kreska pseudotaktowa	!	!	!LO:TX:t=P:problem=kreska pseudotaktowa	!
2Gn\	.	.	2Gny\	-ri-	2e\	-i-	2g\	-i-	.	2cc#X\	-i-
=10-	=10-	=10-	=10-	=10-	=10-	=10-	=10-	=10-	=10-	=10-	=10-
2F\	.	e-	2F\	-e	4f,<\	-son	1a	-son	.	4dd,<\	-son
.	.	.	.	.	4f\	e-	.	.	.	4a\	e-
!LO:TX:t=P:problem=kreska pseudotaktowa	!	!	!LO:TX:t=P:problem=kreska pseudotaktowa	!	!	!	!	!	!	!	!
2D\	.	.	2D/	e-	4f\	-le-	.	.	.	1dd	-le-
!	!	!	!	!	!LO:TX:t=P:problem=kreska pseudotaktowa	!	!	!	!	!	!
.	.	.	.	.	4f\	-i-	.	.	.	.	.
!	!	!	!	!	!LO:TX:t=P:problem=kreska pseudotaktowa	!	!	!	!	!	!
2.A\	.	-le-	2.A\	-le-	1e,<	-son	2r	.	.	.	.
!	!	!	!	!	!	!	!	!	!	!LO:TX:t=P:problem=kreska pseudotaktowa	!
.	.	.	.	.	.	.	4e\	Ky-	.	2ccn\	-i-
!	!	!	!	!	!	!	!LO:TX:t=P:problem=kreska pseudotaktowa	!	!	!	!
4G\	.	-i-	4G\	-i-	.	.	4e\	-ri-	.	.	.
=11-	=11-	=11-	=11-	=11-	=11-	=11-	=11-	=11-	=11-	=11-	=11-
2F#X,<\	.	-son	2F#X,<\	-son	1d	Ky-	2f#X,<\	-e	.	1cc,<	-son
*	*	*ij	*	*	*	*	*	*	*	*	*
!LO:TX:t=P:problem=kreska pseudotaktowa	!	!	!	!	!	!	!	!	!	!	!
2D\	.	e-	2D/	e-	.	.	[<2a\	Ky-	.	.	.
!	!	!	!	!	!	!	!	!	!	!LO:TX:a:t=P:problem=♭ above	!
2.G\	.	-le-	2.G\	-lei-	1d	-ri-	4a\]	.	.	2.b-X\	Ky-
.	.	.	.	.	.	.	4a\	-ri-	.	.	.
!	!	!	!	!	!	!	!LO:TX:t=P:problem=kreska pseudotaktowa	!	!	!	!
.	.	.	.	.	.	.	[<2gn\	-e	.	.	.
*	*	*	*	*	*	*	*	*	*	*custos:b-	*
!	!	!	!	!	!	!	!	!	!	!LO:TX:t=P:problem=kreska pseudotaktowa	!
!	!	!	!LO:TX:t=P:problem=kreska pseudotaktowa	!	!	!	!	!	!	!	!
4F#\	.	-i-	4F#\	.	.	.	.	.	.	4b-\	-ri-
=12-	=12-	=12-	=12-	=12-	=12-	=12-	=12-	=12-	=12-	=12-	=12-
!	!	!	!LO:LB:g=original	!	!	!	!	!	!	!LO:LB:g=original	!
2E,<\	.	-son	2E,<\	-son	2e\	-e	2g\]	.	.	2.b-X\	-e
*	*	*Xij	*	*	*	*	*	*	*	*	*
!LO:TX:t=P:problem=kreska pseudotaktowa	!	!	!	!	!	!	!	!	!	!	!
2C/	.	e-	2C/	e-	2e\	e-	2g\	e-	.	.	.
.	.	.	.	.	.	.	.	.	.	4b-\	e-
4Fny\	.	-lei-	(4Fny\	-lei-	2cny\	-le-	2g\	-le-	.	2a\	-le-
4G\	.	.	4G\	.	.	.	.	.	.	.	.
!	!	!	!	!	!LO:TX:t=P:problem=kreska pseudotaktowa	!	!LO:TX:t=P:problem=kreska pseudotaktowa	!	!	!LO:TX:t=P:problem=kreska pseudotaktowa	!
4A\	.	.	4A\)	.	2c\	-i-	2fny\	-i-	.	2a\	-i-
!LO:TX:t=P:problem=kreska pseudotaktowa	!	!	!	!	!	!	!	!	!	!	!
4B\	.	.	4B\	.	.	.	.	.	.	.	.
=13-	=13-	=13-	=13-	=13-	=13-	=13-	=13-	=13-	=13-	=13-	=13-
!	!	!	!LO:TX:t=P:problem=kreska pseudotaktowa	!	!	!	!	!	!	!	!
2cny\	.	-son	1c	-son	2c,<\	-son	2e,<\	-son	.	2g,</	-son
*clefC4	*	*	*	*	*	*	*	*	*	*	*
1c	.	.	.	.	1c	Ky-	2e\	e-	.	2g/	e-
.	.	.	1r	.	.	.	2d\	-le-	.	2f/	-le-
!LO:TX:t=P:problem=kreska pseudotaktowa	!	!	!	!	!LO:TX:t=P:problem=kreska pseudotaktowa	!	!LO:TX:t=P:problem=kreska pseudotaktowa	!	!	!LO:TX:t=P:problem=kreska pseudotaktowa	!
2B-X\	.	.	.	.	2B-X\	-ri-	2e\	-i-	.	2g/	-i-
=14-	=14-	=14-	=14-	=14-	=14-	=14-	=14-	=14-	=14-	=14-	=14-
!	!	!	!	!	!	!	!	!	!	!LO:TX:t=P:problem=kreska pseudotaktowa	!
2A/	.	.	2r	.	2A\	-e	1f	-son	.	1a,<	-son
*clefF4	*	*	*	*	*	*	*	*	*	*	*
1F	.	e-	1F	e-	2A\	e-	.	.	.	.	.
.	.	.	.	.	2Bn\	-le-	2.g\	Ky-	.	0r	.
!LO:TX:t=P:problem=kreska pseudotaktowa	!	!	!LO:TX:t=P:problem=kreska pseudotaktowa	!	!	!	!	!	!	!	!
2E\	.	-lei-	2E\	-lei-	2c#X\	-i-	.	.	.	.	.
!	!	!	!	!	!	!	!LO:TX:t=P:problem=kreska pseudotaktowa	!	!	!	!
.	.	.	.	.	.	.	4g\	-ri-	.	.	.
=15-	=15-	=15-	=15-	=15-	=15-	=15-	=15-	=15-	=15-	=15-	=15-
!	!	!	!	!	!LO:TX:t=P:problem=kreska pseudotaktowa	!	!	!	!	!	!
2D,<\	.	-son	2D,</	-son	1d	-son	2f\	-e	.	.	.
!	!	!	!	!	!	!	!LO:TX:a:t=P:problem=♮ above	!	!	!	!
1B-X	.	Ky-	1B-X	Ky-	.	.	2fn\	e-	.	.	.
.	.	.	.	.	1r	.	(2e\	-lei-	.	2.cc\	Ky-
!	!	!	!LO:TX:t=P:problem=kreska pseudotaktowa	!	!	!	!LO:TX:t=P:problem=kreska pseudotaktowa	!	!	!	!
2A\	.	-ri-	2A\	-ri-	.	.	2f#X\)	.	.	.	.
.	.	.	.	.	.	.	.	.	.	4cc\	-ri-
=16-	=16-	=16-	=16-	=16-	=16-	=16-	=16-	=16-	=16-	=16-	=16-
!LO:TX:t=P:problem=kreska pseudotaktowa	!	!	!	!	!	!	!	!	!	!	!
0G	.	-e	2G,<\	-e	2r	.	2g,<\	-son	.	2b-X\	-e
*	*	*	*	*	*	*	*	*ij	*	*	*
!	!	!	!	!	!LO:TX:t=P:problem=kreska pseudotaktowa	!	!	!	!	!LO:TX:t=P:problem=kreska pseudotaktowa	!
.	.	.	2G\	e-	2d\	e-	2g\	e-	.	2b-\	e-
.	.	.	2G\	-lei-	2e\	-le-	(2g\	-lei-	.	2b-\	-le-
!	!	!	!LO:TX:t=P:problem=kreska pseudotaktowa	!	!	!	!LO:TX:t=P:problem=kreska pseudotaktowa	!	!	!	!
.	.	.	2G\	-son	2d\	-i-	2fn\)	.	.	2b-\	-i-
=17-	=17-	=17-	=17-	=17-	=17-	=17-	=17-	=17-	=17-	=17-	=17-
!	!	!	!	!	!	!	!LO:LB:g=original	!	!	!LO:TX:t=P:problem=kreska pseudotaktowa	!
2A,<\	.	.	2A,<\	.	2c#X,<\	-son	2e,<\	-son	.	1a	-son.
*	*	*ij	*	*	*	*	*	*Xij	*	*	*
1A	.	Ky-	4A\	Ky-	4A/	Ky-	4c#X/	Ky-	.	.	.
!	!	!	!LO:TX:t=P:problem=kreska pseudotaktowa	!	!LO:TX:t=P:problem=kreska pseudotaktowa	!	!	!	!	!	!
.	.	.	4A\	-ri-	4A/	-ri-	4c#/	-ri-	.	.	.
!	!	!	!	!	!LO:LB:g=original	!	!	!	!	!LO:TX:t=P:problem=kreska pseudotaktowa	!
.	.	.	2A\	-e	2B\	-e	2d\	-e	.	0r	.
!LO:TX:t=P:problem=kreska pseudotaktowa	!	!	!	!	!	!	!LO:TX:t=P:problem=kreska pseudotaktowa	!	!	!	!
2G\	.	-rie	2G\	e-	2c#X\	e-	2e\	e-	.	.	.
*	*	*Xij	*	*	*	*	*	*	*	*	*
=18-	=18-	=18-	=18-	=18-	=18-	=18-	=18-	=18-	=18-	=18-	=18-
!LO:LB:g=original	!	!	!	!	!	!	!	!	!	!	!
2F\	.	e-	2F\	-le-	2d\	-le-	(2f\	-lei-	.	.	.
!	!	!	!	!	!LO:TX:t=P:problem=kreska pseudotaktowa	!	!	!	!	!	!
2E\	.	-lei-	2E\	-i-	2e\	-i-	2g\)	.	.	.	.
!	!	!	!LO:TX:t=P:problem=kreska pseudotaktowa	!	!	!	!	!	!	!	!
2D/	.	-son	1D	-son	4A,</	-son	2f,<\	-son	.	2.f/	Ky-
.	.	.	.	.	4A/	e-	.	.	.	.	.
*clefC4	*	*	*	*	*	*	*	*	*	*	*
1d\	.	.	.	.	1d\	-lei-	4d\	Ky-	.	.	.
!	!	!	!	!	!	!	!LO:TX:t=P:problem=kreska pseudotaktowa	!	!	!	!
.	.	.	.	.	.	.	4d\	-ri-	.	4f/	-ri-
=19-	=19-	=19-	=19-	=19-	=19-	=19-	=19-	=19-	=19-	=19-	=19-
.	.	.	0r	.	.	.	(2e\	-e	.	2g\	-e
!LO:TX:t=P:problem=kreska pseudotaktowa	!	!	!	!	!LO:TX:t=P:problem=kreska pseudotaktowa	!	!	!	!	!LO:TX:t=P:problem=kreska pseudotaktowa	!
2c\	.	.	.	.	2cny\	.	2f#X\)	.	.	2a\	e-
!	!	!	!	!	!	!	!	!	!	!LO:TX:a:t=P:problem=♭ above	!
2B-X\	.	.	.	.	2B-X\	.	(2g\	e-	.	2b-X\	-le-
2A\	.	.	.	.	2A\	-son	2a\)	-lei-	.	2cc\	-i-
=20-	=20-	=20-	=20-	=20-	=20-	=20-	=20-	=20-	=20-	=20-	=20-
!	!	!	!	!	!LO:TX:t=P:problem=kreska pseudotaktowa	!	!LO:TX:t=P:problem=kreska pseudotaktowa	!	!	!	!
2G/	.	.	2r	.	1G	.	1d	-son.	.	2b-X,<\	-son
*clefF4	*	*	*	*	*	*	*	*	*	*	*
1G	.	Ky-	1G	Ky-	.	.	.	.	.	4g/	Ky-
.	.	.	.	.	.	.	.	.	.	4g/	-ri-
.	.	.	.	.	2r	.	2r	.	.	2a\	-e
!LO:TX:t=P:problem=kreska pseudotaktowa	!	!	!LO:TX:t=P:problem=kreska pseudotaktowa	!	!	!	!	!	!	!LO:TX:t=P:problem=kreska pseudotaktowa	!
2F\	.	-ri-	2F\	-ri-	4d\	Ky-	4g\	Ky-	.	2bn\	e-
!	!	!	!	!	!LO:TX:t=P:problem=kreska pseudotaktowa	!	!LO:TX:t=P:problem=kreska pseudotaktowa	!	!	!	!
.	.	.	.	.	4d\	-ri-	4g\	-ri-	.	.	.
=21-	=21-	=21-	=21-	=21-	=21-	=21-	=21-	=21-	=21-	=21-	=21-
2E\	.	-e	2E\	-e	2e\	-e	2g\	-e	.	2cc#X\	-le-
2D\	.	e-	2D/	e-	2f\	e-	2a\	e-	.	2dd\	-i-
2C#X/	.	-lei-	2C#X/	-lei-	2e\	-le-	2g\	-le-	.	2a,<\	-son
!LO:TX:t=P:problem=kreska pseudotaktowa	!	!	!	!	!LO:TX:t=P:problem=kreska pseudotaktowa	!	!LO:TX:t=P:problem=kreska pseudotaktowa	!	!	!LO:TX:t=P:problem=kreska pseudotaktowa	!
2D/	.	.	2D\	.	2d\	-i-	2fny\	-i-	.	2a\	e-
=22-	=22-	=22-	=22-	=22-	=22-	=22-	=22-	=22-	=22-	=22-	=22-
*lig	*	*	*	*	*	*	*	*	*	*	*
!	!	!	!	!	!	!	!	!	!	!LO:LB:g=original	!
1A	.	.	1.A	.	4c#X,<\	-son	2e\	-son	.	1.a	-le-
.	.	.	.	.	4c#\	e-	.	.	.	.	.
.	.	.	.	.	1d	-le-	2f\	e-	.	.	.
1AA	.	.	.	.	.	.	1e	-lei-	.	.	.
.	.	.	2AA/	-son	2c#X\	-i-	.	.	.	2a\	-i-
*Xlig	*	*	*	*	*	*	*	*	*	*	*
=23-	=23-	=23-	=23-	=23-	=23-	=23-	=23-	=23-	=23-	=23-	=23-
0D;>	.	-son	0D;>	.	0d;>	-son.	0f#X;>	-son.	.	0a;	-son
*clefC3	*	*	*	*	*	*	*	*	*	*	*
=24||-	=24||-	=24||-	=24||-	=24||-	=24||-	=24||-	=24||-	=24||-	=24||-	=24||-	=24||-
*M2/1	*	*	*M2/1	*	*M2/1	*	*M2/1	*	*	*M2/1	*
*met(C|)	*	*	*met(C|)	*	*met(C|)	*	*met(C|)	*	*	*met(C|)	*
!	!	!	!LO:LB:g=original	!	!LO:TX:a:t=10	!	!	!	!	!	!
1a	.	Chri-	00r	.	00r	.	1a	Chri-	.	0r	.
1f	.	-ste	.	.	.	.	2fny\	-ste	.	.	.
.	.	.	.	.	.	.	2f\	e-	.	.	.
=25-	=25-	=25-	=25-	=25-	=25-	=25-	=25-	=25-	=25-	=25-	=25-
!	!	!	!	!	!	!	!	!	!	!LO:TX:t=P:problem=kreska pseudotaktowa	!
2g\	.	.	.	.	.	.	(2g\	-lei-	.	1r	.
!LO:TX:t=P:problem=kreska pseudotaktowa	!	!	!	!	!	!	!LO:TX:t=P:problem=kreska pseudotaktowa	!	!	!	!
2a\	.	.	.	.	.	.	2a\)	.	.	.	.
!	!	!	!	!	!	!	!LO:LB:g=original	!	!	!	!
2f\	.	.	.	.	.	.	2f,<\	-son	.	1dd	Chri-
!	!	!	!	!	!	!	!LO:TX:t=P:problem=kreska pseudotaktowa	!	!	!	!
2d\	.	.	.	.	.	.	2d\	e-	.	.	.
=26-	=26-	=26-	=26-	=26-	=26-	=26-	=26-	=26-	=26-	=26-	=26-
2.a\	.	.	0r	.	00r	.	2.a\	-lei-	.	2cc#X\	-ste
!	!	!	!	!	!	!	!	!	!	!LO:TX:t=P:problem=kreska pseudotaktowa	!
.	.	.	.	.	.	.	.	.	.	2cc#\	e-
*custos:f	*	*	*	*	*	*	*	*	*	*	*
!LO:TX:t=P:problem=kreska pseudotaktowa	!	!	!	!	!	!	!	!	!	!	!
4g\	.	.	.	.	.	.	4g\	.	.	.	.
!LO:LB:g=original	!	!	!	!	!	!	!	!	!	!	!
4f\	.	.	.	.	.	.	4f\	.	.	2dd\	-le-
4d\	.	.	.	.	.	.	4d\	.	.	.	.
1g\	.	.	.	.	.	.	1g\	.	.	2ee\	-i-
=27-	=27-	=27-	=27-	=27-	=27-	=27-	=27-	=27-	=27-	=27-	=27-
!	!	!	!LO:TX:t=P:problem=kreska pseudotaktowa	!	!	!	!	!	!	!	!
.	.	.	1r	.	.	.	.	.	.	4cc#X,<\	-son
.	.	.	.	.	.	.	.	.	.	4a\	e-
!	!	!	!	!	!	!	!LO:TX:t=P:problem=kreska pseudotaktowa	!	!	!	!
2f\	.	.	.	.	.	.	2f\	.	.	1dd	-le-
*clefF4	*	*	*	*	*	*	*	*	*	*	*
!	!	!	!LO:TX:t=P:problem=kreska pseudotaktowa	!	!	!	!	!	!	!	!
1A	.	X-	1A	Chri-	.	.	2e,<\	-son	.	.	.
!	!	!	!	!	!	!	!	!	!	!LO:TX:t=P:problem=kreska pseudotaktowa	!
.	.	.	.	.	.	.	2e\	Chri-	.	2cc#X\	-i-
=28-	=28-	=28-	=28-	=28-	=28-	=28-	=28-	=28-	=28-	=28-	=28-
!LO:TX:t=P:problem=kreska pseudotaktowa	!	!	!	!	!LO:TX:t=P:problem=kreska pseudotaktowa	!	!	!	!	!	!
1Fn	.	-te	2F\	-ste	0r	.	2.f,<\	-ste	.	2dd,<\	-son.
.	.	.	2F\	e-	.	.	.	.	.	2a\	e-
!	!	!	!	!	!	!	!LO:TX:t=P:problem=kreska pseudotaktowa	!	!	!	!
.	.	.	.	.	.	.	4f\	e-	.	.	.
2G\	.	e-	2G\	-le-	.	.	2.e\	-le-	.	2g/	-le-
!	!	!	!LO:TX:t=P:problem=kreska pseudotaktowa	!	!	!	!	!	!	!LO:TX:t=P:problem=kreska pseudotaktowa	!
2A\	.	.	2A\	-i-	.	.	.	.	.	2e/	-i-
.	.	.	.	.	.	.	4e\	-i-	.	.	.
=29-	=29-	=29-	=29-	=29-	=29-	=29-	=29-	=29-	=29-	=29-	=29-
2F\	.	-lei-	2F,<\	-son	1d	Chri-	2d,<\	-son	.	2f,</	-son
*	*	*	*	*	*	*	*	*	*	*	*ij
!LO:TX:t=P:problem=kreska pseudotaktowa	!	!	!	!	!	!	!LO:TX:t=P:problem=kreska pseudotaktowa	!	!	!	!
2D/	.	.	2D/	e-	.	.	2d\	e-	.	2a\	e-
2.A\	.	.	2.A\	-lei-	2c#X\	-ste	(2e\	-lei-	.	2.a\	-le-
.	.	.	.	.	2c#\	e-	2e\)	.	.	.	.
!	!	!	!LO:TX:t=P:problem=kreska pseudotaktowa	!	!	!	!	!	!	!LO:TX:t=P:problem=kreska pseudotaktowa	!
4G\	.	.	4G\	.	.	.	.	.	.	4a\	-i-
=30-	=30-	=30-	=30-	=30-	=30-	=30-	=30-	=30-	=30-	=30-	=30-
4F\	.	.	4F\	.	2d\	-le-	(2f\	.	.	2a,<\	-son
*	*	*	*	*	*	*	*	*	*	*	*Xij
4D\	.	.	4D\	.	.	.	.	.	.	.	.
1G	.	.	1G	.	2e\	-i-	2g\)	.	.	2b-X\	X-
!	!	!	!	!	!LO:LB:g=original	!	!	!	!	!	!
.	.	.	.	.	4c#X,<\	-son	2e\	-son	.	2.a\	-te
.	.	.	.	.	4A\	e-	.	.	.	.	.
!LO:TX:t=P:problem=kreska pseudotaktowa	!	!	!	!	!	!	!LO:TX:t=P:problem=kreska pseudotaktowa	!	!	!	!
2F\	.	.	2F\	.	1d\	-le-	2r	.	.	.	.
!	!	!	!	!	!	!	!	!	!	!LO:TX:t=P:problem=kreska pseudotaktowa	!
.	.	.	.	.	.	.	.	.	.	4a\	e-
=31-	=31-	=31-	=31-	=31-	=31-	=31-	=31-	=31-	=31-	=31-	=31-
!	!	!	!LO:TX:t=P:problem=kreska pseudotaktowa	!	!	!	!LO:TX:t=P:problem=kreska pseudotaktowa	!	!	!	!
1E	.	.	1E	.	.	.	1r	.	.	1g	-lei-
!	!	!	!	!	!LO:TX:t=P:problem=kreska pseudotaktowa	!	!	!	!	!	!
.	.	.	.	.	2c#X\	-i-	.	.	.	.	.
!	!	!	!	!	!	!	!	!	!	!LO:TX:t=P:problem=kreska pseudotaktowa	!
2D/	.	-son	2D/	-son	2d,<\	-son	1d	Chri-	.	1f	-son
4r	.	.	4r	.	2f\	e-	.	.	.	.	.
!LO:TX:t=P:problem=kreska pseudotaktowa	!	!	!LO:TX:t=P:problem=kreska pseudotaktowa	!	!	!	!	!	!	!	!
4D/	.	e-	4D/	e-	.	.	.	.	.	.	.
=32-	=32-	=32-	=32-	=32-	=32-	=32-	=32-	=32-	=32-	=32-	=32-
!	!	!	!	!	!	!	!	!	!	!LO:LB:g=original	!
2.A\	.	-lei-	2.A\	-le-	2e\	-le-	2c#X/	-ste	.	2r	.
!	!	!	!	!	!	!	!LO:TX:t=P:problem=kreska pseudotaktowa	!	!	!	!
.	.	.	.	.	2e\	-i-	2c#/	e-	.	2a\	e-
4G\	.	-son	4G\	-i-	.	.	.	.	.	.	.
!	!	!	!	!	!LO:TX:t=P:problem=kreska pseudotaktowa	!	!	!	!	!	!
2F,<\	.	.	2F\	-son	1f,<	-son	2d\	-le-	.	2.dd\	-le-
*	*	*ij	*	*	*	*	*	*	*	*	*
!	!	!	!LO:TX:t=P:problem=kreska pseudotaktowa	!	!	!	!	!	!	!	!
2D\	.	e-	2D/	e-	.	.	2d\	-i-	.	.	.
!	!	!	!	!	!	!	!	!	!	!LO:TX:t=P:problem=kreska pseudotaktowa	!
.	.	.	.	.	.	.	.	.	.	4ccny\	-i-
=33-	=33-	=33-	=33-	=33-	=33-	=33-	=33-	=33-	=33-	=33-	=33-
!	!	!	!	!	!	!	!LO:TX:t=P:problem=kreska pseudotaktowa	!	!	!	!
2.G\	.	-le-	2.G\	-le-	1d	Chri-	1d,<	-son	.	2b-X,<\	-son
.	.	.	.	.	.	.	.	.	.	2g\	e-
4F\	.	-i-	4F\	-i-	.	.	.	.	.	.	.
*	*	*	*	*	*	*	*	*ij	*	*	*
2E,<\	.	-son	2E\	-son	2cny\	-ste	1e	Chri-	.	2.cc\	-le-
*	*	*Xij	*	*	*	*	*	*	*	*	*
!LO:TX:t=P:problem=kreska pseudotaktowa	!	!	!LO:TX:t=P:problem=kreska pseudotaktowa	!	!LO:TX:t=P:problem=kreska pseudotaktowa	!	!	!	!	!	!
2Cny/	.	e-	2Cny/	e-	2c\	e-	.	.	.	.	.
.	.	.	.	.	.	.	.	.	.	4b-\	-i-
=34-	=34-	=34-	=34-	=34-	=34-	=34-	=34-	=34-	=34-	=34-	=34-
4F\	.	-lei-	4F\	-ley-	2c\	-le-	2f\	-ste	.	1a	.
4G\	.	.	4G\	.	.	.	.	.	.	.	.
4A\	.	.	4A\	-son	2c\	-i-	2f\	e-	.	.	.
!LO:TX:t=P:problem=kreska pseudotaktowa	!	!	!LO:SIC:v:s=4B-\	!	!	!	!	!	!	!	!
4B-X\	.	.	4Bny\	.	.	.	.	.	.	.	.
!	!	!	!	!	!LO:TX:t=P:problem=kreska pseudotaktowa	!	!	!	!	!	!
2c\	.	.	4c,<\	.	1c	-son	(2e\	-le-	.	2g/	-son
.	.	.	4C/	X-	.	.	.	.	.	.	.
!	!	!	!	!	!	!	!	!	!	!LO:TX:t=P:problem=kreska pseudotaktowa	!
2F/	.	.	4F,<\	-te	.	.	2f\)	-i-	.	2r	.
!	!	!	!LO:TX:t=P:problem=kreska pseudotaktowa	!	!	!	!	!	!	!	!
.	.	.	4F\	ley-	.	.	.	.	.	.	.
=35-	=35-	=35-	=35-	=35-	=35-	=35-	=35-	=35-	=35-	=35-	=35-
!	!	!	!LO:TX:t=P:problem=kreska pseudotaktowa	!	!	!	!LO:TX:t=P:problem=kreska pseudotaktowa	!	!	!	!
!	!	!	!LO:LB:g=original	!	!	!	!	!	!	!	!
2C/	.	-son	1C	-son	2r	.	1e,<	-son	.	1cc	Chri-
*clefC4	*	*	*	*	*	*	*	*Xij	*	*	*
!LO:TX:t=P:problem=kreska pseudotaktowa	!	!	!	!	!	!	!	!	!	!	!
!LO:LB:g=original	!	!	!	!	!	!	!	!	!	!	!
2c\	.	.	.	.	2c\	e-	.	.	.	.	.
!	!	!	!	!	!	!	!LO:TX:t=P:problem=kreska pseudotaktowa	!	!	!	!
!	!	!	!	!	!	!	!LO:LB:g=original	!	!	!	!
2.f\	.	.	0r	.	2.f\	-le-	1r	.	.	2a\	.
.	.	.	.	.	.	.	.	.	.	2f/	-ste
!	!	!	!	!	!LO:TX:t=P:problem=kreska pseudotaktowa	!	!	!	!	!	!
4e\	.	.	.	.	4e\	-i-	.	.	.	.	.
=36-	=36-	=36-	=36-	=36-	=36-	=36-	=36-	=36-	=36-	=36-	=36-
1d	.	.	.	.	2d,<\	-son	2r	.	.	2.b-X\	e-
*	*	*	*	*	*	*ij	*	*	*	*	*
.	.	.	.	.	2d\	e-	2d\	e-	.	.	.
.	.	.	.	.	.	.	.	.	.	4a\	-lei-
!	!	!	!LO:TX:t=P:problem=kreska pseudotaktowa	!	!	!	!	!	!	!LO:TX:t=P:problem=kreska pseudotaktowa	!
2.e\	.	.	1r	.	2.e\	-le-	2.g\	-le-	.	1g	-son
!	!	!	!	!	!LO:TX:t=P:problem=kreska pseudotaktowa	!	!LO:TX:t=P:problem=kreska pseudotaktowa	!	!	!	!
4d\	.	.	.	.	4d\	-i-	4f\	-i-	.	.	.
*clefF4	*	*	*	*	*	*	*	*	*	*	*
=37-	=37-	=37-	=37-	=37-	=37-	=37-	=37-	=37-	=37-	=37-	=37-
!	!	!	!	!	!LO:TX:t=P:problem=kreska pseudotaktowa	!	!	!	!	!	!
1A	.	X-	1A	Chri-	1c#X	-son	1e,<	-son	.	2r	.
*	*	*	*	*	*	*Xij	*	*	*	*	*
.	.	.	.	.	.	.	.	.	.	2a\	e-
!LO:TX:t=P:problem=kreska pseudotaktowa	!	!	!	!	!LO:TX:t=P:problem=kreska pseudotaktowa	!	!LO:TX:t=P:problem=kreska pseudotaktowa	!	!	!LO:TX:t=P:problem=kreska pseudotaktowa	!
1F	.	-te	2F\	-ste	0r	.	1f	e-	.	[<1dd	-le-
!	!	!	!LO:TX:t=P:problem=kreska pseudotaktowa	!	!	!	!	!	!	!	!
.	.	.	2F\	e-	.	.	.	.	.	.	.
=38-	=38-	=38-	=38-	=38-	=38-	=38-	=38-	=38-	=38-	=38-	=38-
2G\	.	e-	2G\	-le-	.	.	2e\	-lei-	.	2dd]	.
!LO:TX:t=P:problem=kreska pseudotaktowa	!	!	!	!	!	!	!	!	!	!	!
2A\	.	-le-	2A\	-i-	.	.	2e\	-son	.	2cc#X\	-i-
2F\	.	-i-	2F\	-son	1d	Chri-	2f,<\	.	.	2dd,<\	-son
!LO:TX:t=P:problem=kreska pseudotaktowa	!	!	!LO:TX:t=P:problem=kreska pseudotaktowa	!	!	!	!LO:TX:t=P:problem=kreska pseudotaktowa	!	!	!LO:TX:t=P:problem=kreska pseudotaktowa	!
2D/	.	.	2D\	e-	.	.	2f\	Chri-	.	2a\	X-
=39-	=39-	=39-	=39-	=39-	=39-	=39-	=39-	=39-	=39-	=39-	=39-
2A,<\	.	-son	2A\	-lei-	2c#X\	-ste	2e\	-ste	.	2a\	-te
!LO:TX:t=P:problem=kreska pseudotaktowa	!	!	!	!	!LO:TX:t=P:problem=kreska pseudotaktowa	!	!	!	!	!	!
2D/	.	e-	2D\	.	2d\	e-	2f\	e-	.	1a	e-
!	!	!	!	!	!LO:LB:g=original	!	!	!	!	!	!
2AA/	.	.	2AA/	.	2c#X\	-ley-	(2e\	-le-	.	.	.
!LO:TX:t=P:problem=kreska pseudotaktowa	!	!	!LO:TX:t=P:problem=kreska pseudotaktowa	!	!LO:TX:t=P:problem=kreska pseudotaktowa	!	!LO:TX:t=P:problem=kreska pseudotaktowa	!	!	!	!
2D\	.	.	2D\	.	2d\	.	2f\)	.	.	2a\	-le-
=40-	=40-	=40-	=40-	=40-	=40-	=40-	=40-	=40-	=40-	=40-	=40-
2A\	.	-lei-	2A\	.	2c#X\	.	(2e\	-i-	.	1.a	.
2D\	.	.	2D/	.	2d\	.	2f\)	.	.	.	.
1BB-X	76	.	1BB-X	.	1d	.	1d	.	.	.	.
.	.	.	.	.	.	.	.	.	.	2g/	-i-
=41-	=41-	=41-	=41-	=41-	=41-	=41-	=41-	=41-	=41-	=41-	=41-
!LO:TX:b:t=Kyrie Da Capo.	!	!	!LO:TX:b:t=Kyrie Da Capo.	!	!LO:TX:b:t=Kyrie Da Capo	!	!LO:TX:b:t=Kyrie Da Capo	!	!	!LO:TX:b:t=Kyrie\nDa Capo	!
0AA;	.	-son	0AA;>	-son.	0c#X;>	-son.	0e;	-son.	.	0a;	-son.
=-	=-	=-	=-	=-	=-	=-	=-	=-	=-	=-	=-
*-	*-	*-	*-	*-	*-	*-	*-	*-	*-	*-	*-
!!!system-decoration: [(s1,s2,s3,s4,s5)]
!!!RDF**kern: < = below
!!!RDF**kern: > = above
!!!ENC: Marta Chmielewska
!!!END: 2021-08-07
!!!ENC: Andrzej Gręziak
!!!END: 2021-07-15
